src/amo/components/CategoryIcon/img/sports.svg

<svg xmlns="http://www.w3.org/2000/svg" width="64" height="64" viewBox="0 0 64 64">
  <g class="one" fill="#0F1126">
    <path d="M50.1185372,19.3139975 C46.2295611,19.3139975 43.0769231,16.1613594 43.0769231,12.2723834 C43.0769231,8.38340726 46.2295611,5.23076923 50.1185372,5.23076923 C54.0075133,5.23076923 57.1601513,8.38340726 57.1601513,12.2723834 C57.1601513,16.1613594 54.0075133,19.3139975 50.1185372,19.3139975 Z M50.1185372,16.852459 C52.6480431,16.852459 54.6986129,14.8018893 54.6986129,12.2723834 C54.6986129,9.74287741 52.6480431,7.69230769 50.1185372,7.69230769 C47.5890313,7.69230769 45.5384615,9.74287741 45.5384615,12.2723834 C45.5384615,14.8018893 47.5890313,16.852459 50.1185372,16.852459 Z M56.0940583,23.9038684 C57.9951913,22.7156584 60.5390655,23.1307826 61.8117124,24.9488818 C63.1749256,26.8963689 62.6248948,29.5775322 60.6175968,30.8315688 L52.8701771,35.6737059 C52.2075777,36.0881605 51.4492651,36.3026957 50.6787204,36.3026957 C49.5876861,36.3026957 48.5349329,35.8733417 47.753275,35.0910238 L40.9929024,28.3308083 L35.0038135,34.3195852 L46.0901515,41.2490245 C47.038959,41.8416084 47.7069272,42.7926866 47.9417641,43.8854527 C48.1773357,44.9785044 47.9601488,46.1202969 47.3399196,47.0509774 L39.5921264,58.6726672 C38.8157583,59.8372195 37.5208412,60.5145494 36.147825,60.5145494 C35.284969,60.5145494 34.4403908,60.2457973 33.7251156,59.7286781 C31.908358,58.4152293 31.5460584,55.8288373 32.8019309,53.9449364 L38.0940706,46.0063207 L29.3078403,40.5154006 C27.1234407,39.1503195 25.8692847,36.7368413 26.0068655,34.12979 C26.0985705,32.3920157 26.8949715,30.7302557 28.1843262,29.4409697 L35.1438016,22.4818686 L29.951532,17.289734 L25.0734917,20.9487672 C23.000492,22.5033247 20.0177076,21.8004678 18.8610983,19.4289935 C17.9902169,17.6433704 18.5908611,15.4697804 20.1978926,14.2645094 L27.8584205,8.51911859 C29.5051984,7.28437174 31.8102217,7.44858503 33.2643272,8.90403713 L43.9132123,19.5529223 C43.9173463,19.5568476 46.3714958,22.0109971 51.2756609,26.9153708 L56.0940583,23.9038684 Z M31.523354,10.6442048 C30.9349518,10.0552578 30.0016351,9.98876694 29.3352143,10.4884463 L21.6748143,16.2337412 C20.9862018,16.7501994 20.7355982,17.6570751 21.0735271,18.3499522 C21.5498063,19.3264995 22.7551483,19.6105237 23.5965621,18.9795413 L29.3284348,14.6800457 C29.8184245,14.3125029 30.5041143,14.3612061 30.9372352,14.7943158 L37.7546809,21.6115841 C38.235346,22.0922367 38.2353405,22.8715435 37.7546688,23.3521894 L29.9248501,31.1815869 C29.049525,32.0568653 28.5232737,33.1549346 28.4649835,34.25951 C28.3745466,35.9732217 29.1874061,37.5374758 30.6123546,38.4279586 L40.4734831,44.5906322 C41.061939,44.9583853 41.2301983,45.7396473 40.8452952,46.3170314 L34.8500862,55.3103049 C34.305528,56.1271822 34.4588441,57.2216784 35.1672958,57.7338629 C35.4594291,57.9450651 35.7986589,58.053011 36.147825,58.053011 C36.7064018,58.053011 37.2291012,57.7796035 37.5440026,57.3072513 L45.2916818,45.6857326 C45.5428868,45.3087887 45.6308256,44.8464779 45.5353223,44.4033416 C45.4403012,43.9611809 45.1702591,43.5766847 44.7858393,43.3365927 L33.4195464,36.2321696 C32.2202447,35.4825609 32.0300509,33.8121442 33.0301375,32.812108 L40.1226523,25.7199626 C40.6032973,25.2393427 41.382552,25.2393483 41.8631901,25.7199752 L49.4942025,33.3508104 C49.8109568,33.6678321 50.2359408,33.8411573 50.6787204,33.8411573 C50.9907995,33.8411573 51.2963639,33.7547096 51.5651908,33.5865591 L59.3131802,28.7440657 C60.1262646,28.2361005 60.3487838,27.1514151 59.7951289,26.3604634 C59.298736,25.6513182 58.2233415,25.475829 57.3986725,25.991248 L51.750006,29.5216692 C51.2640053,29.82542 50.6326674,29.7535184 50.2274137,29.3482647 L42.1795732,21.3004241 C42.1775305,21.2982711 38.6254574,17.746198 31.523354,10.6442048 Z M23.669418,38.4420885 C25.2854777,40.0568014 25.2854777,42.6771204 23.6697809,44.2914706 L18.9446863,49.0165653 C18.1690583,49.7921932 17.1168644,50.2282472 16.0201765,50.2282472 L5.36696091,50.2282472 C3.08258525,50.2282472 1.23076923,48.3766393 1.23076923,46.0920555 C1.23076923,43.8074716 3.08258525,41.9558638 5.36696091,41.9558638 L14.3069199,41.9558638 L17.8206244,38.4425881 C19.4353559,36.8267543 22.0555058,36.8268296 23.669418,38.4420885 Z M19.5616946,40.1826589 L15.6869093,44.0569714 C15.4560996,44.2877529 15.1430714,44.4174023 14.8166772,44.4174023 L5.36696091,44.4174023 C4.44199345,44.4174023 3.69230769,45.1670037 3.69230769,46.0920555 C3.69230769,47.0171072 4.44199345,47.7667087 5.36696091,47.7667087 L16.0201765,47.7667087 C16.4638651,47.7667087 16.8900037,47.5901068 17.2041158,47.2759947 L21.9295732,42.5505374 C22.5833747,41.8972807 22.5833747,40.8366411 21.9288476,40.1826589 C21.2755909,39.5288573 20.2149513,39.5288573 19.5616946,40.1826589 Z"/>
  </g>
  <g class="two" fill="#0F1126">
    <path d="M9.84615385,28.6153846 C8.48668369,28.6153846 7.38461538,27.5133163 7.38461538,26.1538462 C7.38461538,24.794376 8.48668369,23.6923077 9.84615385,23.6923077 L19.5308953,23.6923077 C20.8903655,23.6923077 21.9924338,24.794376 21.9924338,26.1538462 C21.9924338,27.5133163 20.8903655,28.6153846 19.5308953,28.6153846 L9.84615385,28.6153846 Z M2.46153846,36 C1.10206831,36 0,34.8979317 0,33.5384615 C0,32.1789914 1.10206831,31.0769231 2.46153846,31.0769231 L12.1462799,31.0769231 C13.5057501,31.0769231 14.6078184,32.1789914 14.6078184,33.5384615 C14.6078184,34.8979317 13.5057501,36 12.1462799,36 L2.46153846,36 Z"/>
  </g>
</svg>

<svg xmlns="http://www.w3.org/2000/svg" width="64" height="64"><path d="M50.119 19.314a7.042 7.042 0 1 1 0-14.083 7.042 7.042 0 0 1 0 14.083Zm0-2.462a4.58 4.58 0 1 0 0-9.16 4.58 4.58 0 0 0 0 9.16Zm5.975 7.052c1.901-1.188 4.445-.773 5.718 1.045a4.136 4.136 0 0 1-1.194 5.883l-7.748 4.842a4.13 4.13 0 0 1-5.117-.583l-6.76-6.76-5.99 5.989 11.087 6.929a4.132 4.132 0 0 1 1.25 5.802l-7.748 11.622a4.132 4.132 0 0 1-5.867 1.056c-1.817-1.314-2.179-3.9-.923-5.784l5.292-7.939-8.786-5.49c-2.185-1.366-3.439-3.78-3.301-6.386.092-1.738.888-3.4 2.177-4.689l6.96-6.96-5.192-5.191-4.879 3.659c-2.073 1.554-5.055.851-6.212-1.52-.87-1.786-.27-3.96 1.337-5.164l7.66-5.746a4.136 4.136 0 0 1 5.406.385l10.65 10.649 7.362 7.362 4.818-3.011Zm-24.57-13.26a1.674 1.674 0 0 0-2.189-.156l-7.66 5.746c-.689.516-.94 1.423-.601 2.116a1.677 1.677 0 0 0 2.523.63l5.731-4.3a1.23 1.23 0 0 1 1.61.114l6.817 6.818c.48.48.48 1.26 0 1.74l-7.83 7.83c-.875.875-1.402 1.973-1.46 3.078-.09 1.713.722 3.277 2.147 4.168l9.861 6.163a1.23 1.23 0 0 1 .372 1.726L34.85 55.31c-.544.817-.391 1.912.317 2.424a1.671 1.671 0 0 0 2.377-.427l7.748-11.621a1.675 1.675 0 0 0-.506-2.35L33.42 36.233a2.2 2.2 0 0 1-.39-3.42l7.093-7.092a1.23 1.23 0 0 1 1.74 0l7.631 7.63a1.67 1.67 0 0 0 2.071.237l7.748-4.843a1.674 1.674 0 0 0 .482-2.384c-.496-.709-1.572-.884-2.396-.369l-5.649 3.53a1.23 1.23 0 0 1-1.523-.173L42.18 21.3 31.523 10.644Zm-7.855 27.798a4.135 4.135 0 0 1 0 5.85l-4.724 4.725a4.137 4.137 0 0 1-2.925 1.211H5.367a4.136 4.136 0 1 1 0-8.272h8.94l3.514-3.513a4.135 4.135 0 0 1 5.848 0Zm-4.107 1.74-3.875 3.875c-.23.23-.544.36-.87.36h-9.45a1.674 1.674 0 1 0 0 3.35H16.02c.444 0 .87-.177 1.184-.491l4.726-4.725a1.674 1.674 0 1 0-2.368-2.368Z" class="one" fill="#0F1126"/><path d="M9.846 28.615a2.462 2.462 0 1 1 0-4.923h9.685a2.462 2.462 0 1 1 0 4.923H9.846ZM2.462 36a2.462 2.462 0 0 1 0-4.923h9.684a2.462 2.462 0 1 1 0 4.923H2.462Z" class="two" fill="#0F1126"/></svg>
